public/flags/PH.svg

<svg fill="none" height="53" viewBox="0 0 64 53" width="64" xmlns="http://www.w3.org/2000/svg" xmlns:xlink="http://www.w3.org/1999/xlink"><mask id="a" height="43" maskUnits="userSpaceOnUse" width="59" x="5" y="3"><rect fill="#fff" height="41.4393" rx="3.7125" stroke="#fff" stroke-width="1.06071" width="57.9393" x="5.53036" y="3.53036"/></mask><rect fill="#fff" height="41.4393" rx="3.7125" stroke="#f5f5f5" stroke-width="1.06071" width="57.9393" x="5.53036" y="3.53036"/><g clip-rule="evenodd" fill-rule="evenodd" mask="url(#a)"><path d="m5 45.5h59v-22.6666h-32.7777l1.8729 1.4166z" fill="#dd1c34"/><path d="m64 22.8333h-32.7778l-26.2222-19.8333h59z" fill="#0d4bc3"/><path d="m9.21433 11.5c.77583 0 1.40477-.6343 1.40477-1.4167 0-.78241-.62894-1.41667-1.40477-1.41667s-1.40476.63426-1.40476 1.41667c0 .7824.62893 1.4167 1.40476 1.4167zm16.85727 14.1666c.7758 0 1.4048-.6342 1.4048-1.4166s-.629-1.4167-1.4048-1.4167-1.4048.6343-1.4048 1.4167.629 1.4166 1.4048 1.4166zm-15.4525 12.75c0 .7824-.62889 1.4167-1.40472 1.4167s-1.40476-.6343-1.40476-1.4167.62893-1.4166 1.40476-1.4166 1.40472.6342 1.40472 1.4166zm3.9307-11.3476-2.4043 3.7251.9119-4.3487c-.1467-.1208-.2811-.2564-.4009-.4043l-4.31223.9196 3.69383-2.4248c-.0093-.094-.0141-.1894-.0141-.2859s.0048-.1919.0141-.286l-3.69383-2.4247 4.31213.9196c.1199-.148.2543-.2835.401-.4043l-.9119-4.3488 2.4043 3.7251c.0933-.0094.188-.0143.2837-.0143s.1903.0049.2835.0143l2.4043-3.7251-.9118 4.3486c.1468.1209.2812.2565.4011.4045l4.312-.9196-3.6937 2.4246c.0093.0941.0141.1895.0141.2861 0 .0965-.0048.192-.0141.2861l3.6937 2.4246-4.3121-.9196c-.1198.148-.2542.2835-.401.4044l.9118 4.3486-2.4043-3.725c-.0932.0094-.1878.0142-.2835.0142s-.1904-.0048-.2837-.0143z" fill="#fdd64d"/></g></svg>

<svg width="64" height="53" viewBox="0 0 64 53" fill="none" xmlns="http://www.w3.org/2000/svg">
<rect x="5.53036" y="3.53036" width="57.9393" height="41.4393" rx="3.7125" fill="white" stroke="#F5F5F5" stroke-width="1.06071"/>
<mask id="mask0" mask-type="alpha" maskUnits="userSpaceOnUse" x="5" y="3" width="59" height="43">
<rect x="5.53036" y="3.53036" width="57.9393" height="41.4393" rx="3.7125" fill="white" stroke="white" stroke-width="1.06071"/>
</mask>
<g mask="url(#mask0)">
<path fill-rule="evenodd" clip-rule="evenodd" d="M5 45.5V45.5H64V22.8334H31.2223L33.0952 24.25L5 45.5Z" fill="#DD1C34"/>
<path fill-rule="evenodd" clip-rule="evenodd" d="M64 22.8333H31.2222L5 3H64V22.8333Z" fill="#0D4BC3"/>
<path fill-rule="evenodd" clip-rule="evenodd" d="M9.21433 11.5C9.99016 11.5 10.6191 10.8657 10.6191 10.0833C10.6191 9.30089 9.99016 8.66663 9.21433 8.66663C8.4385 8.66663 7.80957 9.30089 7.80957 10.0833C7.80957 10.8657 8.4385 11.5 9.21433 11.5ZM26.0716 25.6666C26.8474 25.6666 27.4764 25.0324 27.4764 24.25C27.4764 23.4676 26.8474 22.8333 26.0716 22.8333C25.2958 22.8333 24.6668 23.4676 24.6668 24.25C24.6668 25.0324 25.2958 25.6666 26.0716 25.6666ZM10.6191 38.4166C10.6191 39.199 9.99021 39.8333 9.21438 39.8333C8.43855 39.8333 7.80962 39.199 7.80962 38.4166C7.80962 37.6342 8.43855 37 9.21438 37C9.99021 37 10.6191 37.6342 10.6191 38.4166ZM14.5498 27.069L12.1455 30.7941L13.0574 26.4454C12.9107 26.3246 12.7763 26.189 12.6565 26.0411L8.34427 26.9607L12.0381 24.5359C12.0288 24.4419 12.024 24.3465 12.024 24.25C12.024 24.1535 12.0288 24.0581 12.0381 23.964L8.34427 21.5393L12.6564 22.4589C12.7763 22.3109 12.9107 22.1754 13.0574 22.0546L12.1455 17.7058L14.5498 21.4309C14.6431 21.4215 14.7378 21.4166 14.8335 21.4166C14.9292 21.4166 15.0238 21.4215 15.117 21.4309L17.5213 17.7058L16.6095 22.0544C16.7563 22.1753 16.8907 22.3109 17.0106 22.4589L21.3226 21.5393L17.6289 23.9639C17.6382 24.058 17.643 24.1534 17.643 24.25C17.643 24.3465 17.6382 24.442 17.6289 24.5361L21.3226 26.9607L17.0105 26.0411C16.8907 26.1891 16.7563 26.3246 16.6095 26.4455L17.5213 30.7941L15.117 27.0691C15.0238 27.0785 14.9292 27.0833 14.8335 27.0833C14.7378 27.0833 14.6431 27.0785 14.5498 27.069Z" fill="#FDD64D"/>
</g>
</svg>
